-- inicializar tidalcycles
:script "C:/Users/Lucho Alvarado/Documents/automat4/dev/automat4_set_dev2/setup.tidal"


-- todos los let
let bpm b = setcps(b/60/4)

-- jesus
let dk = --sometimes (plyWith "<2 4>" ((|* amp 0.95)) . (|* rate 3) . (# dsend 0.5))
        sometimes (fast 2) $ struct "t*8"
        $ buf 53 # s "808oh" # rate 0.5 # humanize # lpf' (sinosc 1000 3000 0.125) 0.1
        # rsend (triosc 0.5 1.5 0.5) # adsr' (triosc 0.05 0.15 0.5) (randosc 0.02 0.2) 0.1 0.1
    amen = slow 2 $ struct "t*16" $ s "amencutup" # buf (run 32 )
        # adsr' 0.01 (randosc 0.1 0.3) 0.1 0.3 # lpf' 5000 0.05
        # rate 0.8 # rsend "0 0 2 0 0 0 0 0 0 0 0.8 0 0 0 0 0" |+ rsend 0.2
    fm1 = struct "<t*16!4 ~!2>"
      -- $ note ((run 40) + "<40 50>")
      $ note "46 51 53 57 60 <65 69>"
      |+ note "<-12 0 12>"
      # s "fm1"
      -- 46, 51, 53, 57, 60, 65
      # dur 0.1 # amp 0.1
      # adsr' 0.001 0.15 0.01 0.2
      # drive' 0.4 0.1 0.1 0.1
    discreto = every 8 ((|+ note "<12 0 0>"))
        $ note "[<69!15 67>, <72!15 74>]" # s "discreet3" # dur 0.8
        # adsr' 0.1 2.5 0.5 1.5 # amp 0.06 # detune 0.99 # rsend 0.25 # dsend 0.8
        # vib' 0.25 0.5
        # trem' "0.25 4 8" (randosc 0.01 0.9) # modType 2
        # drive' 0.2 0.1 0.01 0.3 # width (sinosc 0.01 0.4 0.25)

let robot = -- slow 2 $ rarely (slow 2)
          -- $ jux rev $
          s "<aaa aaa2>(<9 11>, 16, <0 2>)?0.5"
          # note (choose [55, 57, 62, 65, 67])
          |+ note "{12 0 7}%8" |+ note "<-12 0 0 7>"
          # detune "1.01 0.99" # dur 0.5
          # atk 0.4 # rel 2.8
          # lpfreq (slow 8 $ range 500 1200 sine) # lpres 0.2
          # rsend (range 0.9 1.0 rand) # dsend 0.8
          |* amp (choose [0.3, 0.125, 0.05])
    liquidos = slow 2
          $ note "[<69 67 74>, <62, 64, 59>]" |+ note "<0 7 12>"
          |+ note "<12 0>"
          # s "soft" # amp 0.32 # detune "<1.01 0.991>"
          # atk 2.5 # rel 7.5
          # lpfreq 1400 # freqmod 1.01 # flutterdepth 0.985
          # rsend 0.5

let filmbass = select ("<1!16 2!16 3!16>"/3) [
            note "46 46 46 46 46 45 45 45 45 45 45 45 45 45 45 45",
            note "48 48 48 48 48 49 48 48 48 48 48 48 49 48 48 49",
            note "39 51 50 50 <39 47> 51 50 50 39 51 50 50 39 51 50 50"
            ]
          # s "filmbassNuevo" |+ note "-12 0"
          # amp 0.9
          # detune (randosc 0.97 1.03)
          # adsr' (triosc 0.001 0.1 0.25) 0.1 0.4 0.1
          # drive' 0.7 0.3 0.3 0.4
          # dur 0.02
          # feedback "2.2 0.8 <1.6 3.4> 2.8" |* feedback 0.25
          # width (sinosc 0.001 0.2 0.25) # drive' 0.8 0.3 0.1 0.1
          # lpfreq (sawosc 6500 600 0.125)-- (slow 3 $ range 3500 6500 saw)
          # lpres (sinosc 0.4 0.85 0.125)
    filmdiscreet = slow 4
          $ select ("<1!16 1!16>"/2) [
              struct ("<t(3, 8, 0) t(5, 8, 0)>")
              $ note "<[74, 77]!2 [74, 76]!2>"
              , struct "t(2, 8, 0)"
              $ note "<[79, 77]!4 [69, 74, 83]!4 [79, 77]!4 [71, 74, 81]!4 >"
              # vib' 2 0.5 # trem' 2 0.2
              ] # amp 0.03
          # s "discreet3"
          # detune "0.99 1.01 1.005"
          # adsr' 0.1 0.2 0.4 0.5
          # rsend 1.4 # dsend 1.5
          # lpf' 3500 0.4

let bassdk2 = buf "0*8" # s "dk2bass"
          # rate "<0.333!8 0.555!8>*2 ~~ 0.333*4"
          # amp 0.2 # drive 0.3 # bias 0.01 # dur 0.25
    breaks = buf "0 2 4 6 8 10 12 14 16 18 20 22 24 26 <28 [28 28]> 30"
            # s "amencutup" # amp ((run 10) / 30) # rsend 0.1 # dsend (range 0.0 0.3 rand)
            # rate "4 3 2 <1.5!4 1.33!4>" # dur 0.1 # atk 0.02
            # drive 0.8 # bias 0.1
    guitars1 = struct "t(7, 8)" $ stack[
                buf "8" #pan "-0.7" # rate 0.3331,
                buf "8"  # pan 0.47 # rate 0.3333
            ] # s "dk2guitar" # amp 0.1 # dur 0.2
            |* rate (choose [1.0, 1.5, 2.0, 3.0, 4.0])
            # rsend 0.7 # dsend 0.2
    guitars2 = struct "t(3, 8)" $ stack[
                buf "4" # pan "-0.7" #rate 0.3331,
                buf "4" # pan 0.47 # rate 0.3333
              ] # s "dk2guitar"  # amp 0.07 # dur 0.25
              |* rate (choose [1.0, 1.5, 2.0, 3.0, 0.5])
              # rsend 0.7 # dsend 0.2

let breaksjungle = buf "0 2 4 6 8 10 12 14 16 18 20 22 24 26 <28 [28 28]> 30"
           |+ buf 2
           # s "amencutup" # amp ((run 10) / 30) # rsend 0.1 # dsend (range 0.0 0.3 rand)
           # rate "4 3 2 <1.5!4 1.33!4>" # dur 0.1 # atk 0.02
           # drive 0.8 # bias 0.1
    discreetjungle = every 4 (|- note 5)
            $ note "[62, 65, 69](3, 8 ,1)"
            # s "discreet3" # amp 0.03
            # detune 1.515
            # atk 0.01 # sus 0.5 # dur 0.35 # rel 1.25
            # rsend 0.95 # dsend 0.95
            # lpfreq 6500 # drive 0.2 # bias 0.01

let stringsjungle =
            sometimes (jux ((|+ note 9). (|* amp 0.5))) $
            struct "t*8?0.01"
            -- $ buf (range 99 "<73 80>" tri)
            $ buf "[96 91 86 81 76 <86 86 98> 91 96 95 88 86 81 81 83 91 95]/2"
            -- $ buf (range 97 "<71 79>" tri )
            # s "dk2piano"
            # amp (fast 4 $ range 0.2 0.4 tri)
            # dur (slow 2 $ range 0.14 0.7 sine)
            -- # rate "[0.371, 0.555]"
            # rate 0.666 -- |* rate 0.5
            |* rate (choose [0.25, 0.25, 0.5, 0.5, 0.5, 0.25, 0.25, 0.25, 0.5, 0.5, 0.5, 0.25])
            # atk 0.02 # rel 0.7
            # lpf' (sinosc 850 3500 0.125) 0.3 # drive 0.05 # bias 0.05
            # dsend 0.95 # rsend 0.9

let kickjungle = struct "t ~ t [~ t] ~ t t ~"
          $ buf "0" # amp 0.1 # low 0.1 # drive 0.2
    snarejungle = buf "~ 13 ~ <13 13 14 13>"
          # amp 0.06 # drive 0.2 # low 0.2 # high 0.3
          # rsend 0.3
    ridejungle = buf "10*8" # amp "{0.02 0.005}%8" # pan (range 0.1 0.2 rand)
    diddyjungle = buf "<1 <2 2 3> 5>"
          # amp 0.04 # rsend 0.7
          # dsend 0.9
          # lpfreq 3000
    stuffjungle = sometimes (# pan (range "-0.7" 0.7 rand ))
          $ buf "<<~ 12> ~!15>  1 ~ <1!7 [2 <6 8>]>"
          # amp 0.05 # rate 0.33
          # atk 0.01 # rsend 0.5 # dsend (randosc 0.1 1.5)
    timbaljungle = buf "~ ~ <~!1 [~ 9]> 9" # rate 0.331 # amp 0.1

-- instrumentos (sharp)
bpm 133 -- jesus
bpm 138 -- robot/cineasta/tecno2
bpm 142 -- tecno3
bpm 152 -- jungle

hush

all $ (# nudge "-0.05")

--- iteracion 3 ----

d1 $ stack [
      -- kick # s "datakick" # rate 1.0,
      snarejungle # s "dk2jungle" # rate 0.66,
      ridejungle # s "dk2jungle" # rate 0.33,
      diddyjungle # s "dk2jungle" # rate 0.33,
      stuffjungle # s "dk2jungle" # rate 0.33
      -- timbal # pan "-1.0", rev $ timbal # pan "1.0"
    ]
   # lpfreq 5000 |* amp 0.8 # drive' 0.1 0.1 0.1 0.3 -- 1.0
   # rsend (choose [0.0, 0.5, 1.0])


d2 silence



d1 silence

d2 $ bassdk2














d2 silence

d3 $ stringsjungle |* amp 0.07














d3 silence








d3 silence













d4 $ almostNever (plyWith "2" ((|* amp 0.95)))
   $ guitars2 |* amp 0.25




d1 $ stack [
      -- kick # s "datakick" # rate 1.0,
      snarejungle # s "dk2jungle" # rate 0.66,
      ridejungle # s "dk2jungle" # rate 0.33,
      diddyjungle # s "dk2jungle" # rate 0.33,
      stuffjungle # s "dk2jungle" # rate 0.33
      -- timbal # pan "-1.0", rev $ timbal # pan "1.0"
    ]
   # lpfreq 6000 |* amp 0.7 # drive' 0.1 0.1 0.1 0.3 -- 1.0
   # rsend (choose [0.0, 0.5, 1.0])


d1 silence



d1 silence

d2 $ bassdk2














d2 silence


d3 $ stringsjungle |* amp 0.5


hush






d3 silence








d3 silence
hush















d4 $ almostNever (plyWith "2" ((|* amp 0.95)))
   $ guitars2 |* amp 0.25









d1 $ stack [
      -- kick # s "datakick" # rate 1.0,
      snarejungle # s "dk2jungle" # rate 0.66,
      ridejungle # s "dk2jungle" # rate 0.33,
      diddyjungle # s "dk2jungle" # rate 0.33,
      stuffjungle # s "dk2jungle" # rate 0.33 |* amp 0.8
      -- timbal # pan "-1.0", rev $ timbal # pan "1.0"
    ]
   # lpfreq 4000 |* amp 0.9 # drive' 0.1 0.1 0.1 0.3 -- 1.0
   # rsend (choose [0.0, 0.5, 1.0])


d2 silence

d2 $ bassdk2














d2 silence


d3 $ stringsjungle |* amp 0.6


















d3 silence





d3 silence















d3 silence










d3 silence

d4 $ almostNever (plyWith "2" ((|* amp 0.95)))
   $ guitars2 |* amp 0.25




d4 silence

hush


do
  let globalamp = 1
  d1 $ breaks |* amp globalamp |* amp 0.5
  d3 $ discreet |* amp globalamp

--- forma antigua (sin sharp)



-- nuevo jesus 2

do
  let dk = --sometimes (plyWith "<2 4>" ((|* amp 0.95)) . (|* rate 3) . (# dsend 0.5))
          sometimes (fast 2) $ struct "t*8"
          $ buf 53 # s "808oh" # rate 0.5 # humanize # lpf' (sinosc 1000 3000 0.125) 0.1
          # rsend (triosc 0.5 1.5 0.5) # adsr' (triosc 0.05 0.15 0.5) (randosc 0.02 0.2) 0.1 0.1
      amen = slow 2 $ struct "t*16" $ s "amencutup" # buf (run 32 )
          # adsr' 0.01 (randosc 0.1 0.3) 0.1 0.3 # lpf' 5000 0.05
          # rate 0.8 # rsend "0 0 2 0 0 0 0 0 0 0 0.8 0 0 0 0 0" |+ rsend 0.2
  d1 $ stack[
      dk # amp 0.15,
      amen # amp 0.12 # drive' 0.3 0.1 0.1 0.15
      ]
  -- h1  $ randdk

d1 silence

d2 $ struct "<t*16!4 ~!2>"
  -- $ note ((run 40) + "<40 50>")
  $ note "46 51 53 57 60 <65 69>"
  |+ note "<-12 0 12>"
  # s "fm1"
  -- 46, 51, 53, 57, 60, 65
  # dsend 0.5 # rsend 0.5
  # dur 0.1 # amp 0.1
  # adsr' 0.001 0.15 0.01 0.2
  # drive' 0.4 0.1 0.1 0.1


d3  $ every 8 ((|+ note "<12 0 0>"))
    $ note "[<69!15 67>, <72!15 74>]" # s "discreet3" # dur 0.8
    # adsr' 0.1 2.5 0.5 1.5 # amp 0.06 # detune 0.99 # rsend 0.25 # dsend 0.8
    # vib' 0.25 0.5
    # trem' "0.25 4 8" (randosc 0.01 0.9) # modType 2
    # drive' 0.2 0.1 0.01 0.3 # width (sinosc 0.01 0.4 0.25)

hush

---

setcps(145/60/4)

do
  let robot = slow 2 $ rarely (slow 2)
            $ jux rev $ s "<aaa aaa2>(<9 11>, 16, <0 2>)?0.5"
            # note (choose [55, 57, 62, 65, 67])
            |+ note "{12 0 7}%8" |+ note "<-12 0 0 7>"
            # detune "1.01 0.99" # dur 0.5
            # atk 0.4 # rel 2.8
            # lpfreq (slow 8 $ range 500 1200 sine) # lpres 0.2
            # rsend (range 0.9 1.0 rand) # dsend 0.8
  let liquidos = slow 2
            $ note "[<69 67 74>, <62, 64, 59>]" |+ note "<0 7 12>"
            |+ note "<12 0>"
            # s "soft" # amp 0.32 # detune "<1.01 0.991>"
            # atk 2.5 # rel 7.5
            # lpfreq 1400 # freqmod 1.01 # flutterdepth 0.985
            # rsend 0.5
  x1 $ robot |* amp (choose [0.3, 0.125, 0.05])
    |* amp 0.1
  x2 $ mute $ liquidos |* amp 0.1

---

d1 $ stack [
  buf "<[10*4]!7 [11*16]?0.25>" # amp 0.2
  -- buf "[~ <18!3 [19 19]>]*4" # amp 0.03 # rsend 0.8 # pan (choose [-0.75, 0.75, 0.0])
  ]
  # s "linn" # drive 0.7 # bias 0.1 |* amp 1 # lpfreq 3500 # lpres 0.01

do
  let filmbass = select ("<1!16 2!16 3!16>"/3) [
              note "46 46 46 46 46 45 45 45 45 45 45 45 45 45 45 45",
              note "48 48 48 48 48 49 48 48 48 48 48 48 49 48 48 49",
              note "39 51 50 50 <39 47> 51 50 50 39 51 50 50 39 51 50 50"
              ]
            # s "filmbassNuevo" |+ note "-12 0"
            # amp 0.9
            # detune (randosc 0.97 1.03)
            # adsr' (triosc 0.001 0.1 0.25) 0.1 0.4 0.1
            # drive' 0.7 0.3 0.3 0.4
            # dur 0.02
            # feedback "2.2 0.8 <1.6 3.4> 2.8" |* feedback 0.25
            # width (sinosc 0.001 0.2 0.25) # drive' 0.8 0.3 0.1 0.1
            # lpfreq (sawosc 6500 600 0.125)-- (slow 3 $ range 3500 6500 saw)
            # lpres (sinosc 0.4 0.85 0.125)
      filmdiscreet = slow 4
            $ select ("<1!16 2!16>"/2) [
                struct ("<t(3, 8, 0) t(5, 8, 0)>")
                $ note "<[74, 77]!2 [74, 76]!2>"
                , struct "t(2, 8, 0)"
                $ note "<[79, 77]!4 [69, 74, 83]!4 [79, 77]!4 [71, 74, 81]!4 >"
                # vib' 2 0.5 # trem' 2 0.2
                ] # amp 0.03
            # s "discreet3"
            # detune "0.99 1.01 1.005"
            # adsr' 0.1 0.2 0.4 0.5
            # rsend 1.4 # dsend 1.5
            # lpf' 3500 0.4
  d3 $ filmdiscreet
  d5 $ filmbass

--------------
-- tecno2


d1 -- $ sometimes (plyWith "1" ((|* amp 0.9) .(|*rate 2)))
  $ struct "[~ ~ ~ ~ ~ ~ ~ ~ ~ ~ ~ ~ ~ <~ t> ~ <t ~ ~ >]/2"
  $ s "dataclap" # drive 0.5 # lpfreq 5000
  # rate 1
  +| buf "2 1 1 1"  # amp 0.1 # dsend 0.2

d3
  $ fast 1 $ plyWith (choose [2]) (
  (|* amp 0.9) .(|+ note "<5 7>")
  )
  $ sometimes (
    jux (# note (range 60 70 sine))
    )
  $ note "<[50 55]!2 ~ [50 55]>"  # feedback (range 0.5 1.5 sine)
  # s "neutron" # amp (fast 2 $ range 0.1 0.4 saw) |* amp 0.6
  |+note (choose [0, 0, 5, 7, 12])
  # atk 0.1 # rel (range 1.2 3.2 rand) |* rel 0.25
  # lpres 0.2
  # drive 0.6
  # dsend 0.8 # rsend 0.5

d3 $ every 2 (|* amp 0.0)
   $ almostNever (plyWith "2" ((|* amp 0.9).(|+note 7))) $ sometimes (fast 2)
    $ fast 1
    $ note "[<55 61>,58](5, 8, 2)"
    # s "ninin"
    |+ note (choose [0, 12])
  # amp 0.04 # width (range 0.01 0.6 rand)
  # feedback (range 0.6 1.5 rand)
  # dur 0.1 # lpres (range 0.01 0.7 sine)
  # lpfreq (range 1500 3500 rand)
  # atk 0.01 # rel (range 0.05 0.8 rand)
  # decay (range 0.1 0.9 rand)
  # detune 1.02 # dsend 0.7 # rsend 0.5

d3   $  slow 1.0 $ jux rev $ every 2 (fast 2)
  $ s "<dreamy>(<1 2>, 8)"
  # note "<<65 ~><66?0.75 68>>" -- |+ note "<-12 <-12 0>>"
  |+ note "<-12 0 12?0.5>" # amp (slow 2 $ range 0.03 0.4 sine)
  -- |- note 12
  -- |+ note "-12"
  # amp "<0.32 0.12>" # pan (range "-0.25" 0.25 rand)
  |* amp 2
  -- # amp 0.3
  # detune (slow 2 $ range 0.995 1.0015 sine)
  # nSynths (choose [9, 3, 5, 7])
  # pan (range "-0.8" 0.8 rand) # dur 0.3
  # atk (slow 8 $ range 0.05 0.1 tri) # rel (range 0.4 1.2 rand)
  # lpfreq (slow 4 $ range 3000 4000 sine) # drive 0.5 # bias 0.02
  # flutter 4.25 # flutterdepth "-0.85"
  # dsend 0.5 # rsend 0.5
  -- # dsend 2.5 # rsend 2.5


-------------------------
-- tecno3

d3 -- $ (every  (jux rev))
  -- $ rev
  $ jux (rev . (|* freq 0.5) .(|* amp 0.7) )
  $ slow 2 $ struct "~ ~ ~ t [~ ~ ~ t][~ ~ ~ ~] [t] ~ t ~"
  $ s "tecno3" # amp (fast 4 $ range 0.05 0.2 tri)
  +| freq (100 - (( run 5) *2 )) |- freq (range "-0.125" 0.125 rand)
  -- |* freq 6
  |* freq 6
  -- # atk (slow 8 $ range 0.01 0.2 sine) # rel
  -- (slow 8 $ range 0.01 0.2 rand)
  -- # decay 0.2 # sus 0.001 # rel 2
  # adsr' (sinosc 0.01 0.2 0.125) 0.1 0.1 (randosc 0.01 0.2)
  # pan (range "-0.25" 0.25 rand) # drive 0.5
  +| feedback (slow 8 $ range 0.2 1.6 tri)
  # dsend 1.5 # rsend 0.8

d4 $ every 8 (
  plyWith "<2 2 2 <2 2 3>>" (
    (|* amp 0.95).(|* freq "<1.5 1.5>").(# atk 1.2).(# rel 7)
    )
    )
  -- $ slow 4 $ struct "t(3, 16, 0)"
  $ struct "t/2"
  $  freq "<[300, 450]!8 [100, 150]!8> " # s "padstecno3"
  |* freq "<1.0 1.5 1.5>" # lpfreq 2500
  # atk 0.85 # rel 5.5 # dur 2.4
  # width (slow 8 $ range 0.01 0.7 sine)
  # amp (slow 8 $ range 0.1 0.3 sine) # dsend 0.25 # rsend 0.8
  # nudge (range "-0.2" 0.2 rand)

d3 -- $ jux rev
  $ struct "t*8?0.05"
  $ s "tecno3" # amp (fast "<2 4>" $ range 0.3 0.5 tri)
  |+ freq (choose [50, 80, 100, 120, 150])
  |- freq (range "-0.25" 0.25 rand)
   |* freq 2
  # atk (slow 8 $ range 0.001 0.1 sine) # rel (slow 8 $ range 0.01 0.2 rand)
  # decay 0.01 # sus 0.0125 # rel 0.1
  # pan (range "-0.25" 0.25 rand) # drive 0.1
  +| feedback (slow 8 $ range 0.5 2.1 tri)
  # dsend 0.4 # rsend 0.3
  |* amp 0.6

-- felicidad
d4 -- $ jux rev
  $ struct "t t ~ t t t t ~ t ~"
  $ s "tecno3" # amp (fast 4 $ range 0.07 0.08 tri)
  +| freq (( run 7 + 1) *20 ) |- freq (range "-0.25" 0.25 rand)
  |* freq (choose [6])
  # atk (slow 8 $ range 0.001 0.01 sine) # rel (slow 8 $ range 0.01 0.2 rand)
  # decay 0.02 # sus 0.001 # rel 0.02
  # pan (range "-0.25" 0.25 rand) # drive 0.1
  +| feedback (slow 8 $ range 0.2 1.6 tri)
  # dsend 1.5 # rsend 0.5

-------
-- jungle

bpm 152

let bassdk2 = buf "0*8" # s "dk2bass"
          # rate "<0.333!8 0.555!8>*2 ~~ 0.333*4"
          # amp 0.2 # drive 0.3 # bias 0.01 # dur 0.25
    breaks = buf "0 2 4 6 8 10 12 14 16 18 20 22 24 26 <28 [28 28]> 30"
            # s "amencutup" # amp ((run 10) / 30) # rsend 0.1 # dsend (range 0.0 0.3 rand)
            # rate "4 3 2 <1.5!4 1.33!4>" # dur 0.1 # atk 0.02
            # drive 0.8 # bias 0.1
    guitars1 = struct "t(7, 8)" $ stack[
                buf "8" #pan "-0.7" # rate 0.3331,
                buf "8"  # pan 0.47 # rate 0.3333
            ] # s "dk2guitar" # amp 0.1 # dur 0.2
            |* rate (choose [1.0, 1.5, 2.0, 3.0, 4.0])
            # rsend 0.7 # dsend 0.2
    guitars2 = struct "t(3, 8)" $ stack[
                buf "4" # pan "-0.7" #rate 0.3331,
                buf "4" # pan 0.47 # rate 0.3333
              ] # s "dk2guitar"  # amp 0.07 # dur 0.25
              |* rate (choose [1.0, 1.5, 2.0, 3.0, 0.5])
              # rsend 0.7 # dsend 0.2


do
  hush
  -- x1 $ mute $ breaks
  d2 $ bassdk2
  d3  $ sometimes (|* rate "-1.0")
     $ almostNever (plyWith "<4 2>" ((|* amp 0.97)))
     $ guitars1 |* amp 0.5
  d4 $ almostNever (plyWith "2" ((|* amp 0.95)))
     $ guitars2 |* amp 0.25


let breaks = buf "0 2 4 6 8 10 12 14 16 18 20 22 24 26 <28 [28 28]> 30"
           |+ buf 2
           # s "amencutup" # amp ((run 10) / 30) # rsend 0.1 # dsend (range 0.0 0.3 rand)
           # rate "4 3 2 <1.5!4 1.33!4>" # dur 0.1 # atk 0.02
           # drive 0.8 # bias 0.1
    discreet = every 4 (|- note 5)
            $ note "[62, 65, 69](3, 8 ,1)"
            # s "discreet3" # amp 0.03
            # detune 1.515
            # atk 0.01 # sus 0.5 # dur 0.35 # rel 1.25
            # rsend 0.95 # dsend 0.95
            # lpfreq 6500 # drive 0.2 # bias 0.01

do
  let globalamp = 1
  d1 $ breaks |* amp globalamp |* amp 0.5
  d3 $ discreet |* amp globalamp

do
  let kick = struct "t ~ t [~ t] ~ t t ~"
            $ buf "0" # amp 0.1 # low 0.1 # drive 0.2
      snare = buf "~ 13 ~ <13 13 14 13>"
            # amp 0.06 # drive 0.2 # low 0.2 # high 0.3
            # rsend 0.3
      ride = buf "10*8" # amp "{0.02 0.005}%8" # pan (range 0.1 0.2 rand)
      diddy = buf "<1 <2 2 3> 5>"
            # amp 0.04 # rsend 0.7
            # dsend 0.9
            # lpfreq 3000
      stuff = sometimes (# pan (range "-0.7" 0.7 rand ))
            $ buf "<<~ 12> ~!15>  1 ~ <1!7 [2 <6 8>]>"
            # amp 0.05 # rate 0.33
            # atk 0.01 # rsend 0.5 # dsend (randosc 0.1 1.5)
      timbal = buf "~ ~ <~!1 [~ 9]> 9" # rate 0.331 # amp 0.1
  -- x5 silence
  d1 $ stack [
      -- kick # s "datakick" # rate 1.0,
      snare # s "dk2jungle" # rate 0.66,
      ride # s "dk2jungle" # rate 0.33,
      diddy # s "dk2jungle" # rate 0.33,
      stuff # s "dk2jungle" # rate 0.33
      -- timbal # pan "-1.0", rev $ timbal # pan "1.0"
    ]
   # lpfreq 2000 |* amp 0.8 # drive' 0.1 0.1 0.1 0.3 -- 1.0
   # rsend (choose [0.0, 0.5, 1.0])

  -- x3 silence
  x4 silence

d4 silence

do
  let strings =
              sometimes (jux ((|+ note 9). (|* amp 0.5))) $
              struct "t*8?0.01"
              -- $ buf (range 99 "<73 80>" tri)
              $ buf "[96 91 86 81 76 <86 86 98> 91 96 95 88 86 81 81 83 91 95]/2"
              -- $ buf (range 97 "<71 79>" tri )
              # s "dk2piano"
              # amp (fast 4 $ range 0.2 0.4 tri)
              # dur (slow 2 $ range 0.14 0.7 sine)
              -- # rate "[0.371, 0.555]"
              # rate 0.666 -- |* rate 0.5
              |* rate (choose [0.25, 0.25, 0.5, 0.5, 0.5, 0.25, 0.25, 0.25, 0.5, 0.5, 0.5, 0.25])
              # atk 0.02 # rel 0.7
              # lpf' (sinosc 850 3500 0.125) 0.3 # drive 0.05 # bias 0.05
              # dsend 0.95 # rsend 0.9
  d3 $ strings |* amp 0.3

do
d1 silence
d2 silence
d3 silence
d5 silence

hush
